X: 130251
T: Megan McGann's 
C: BB
R: reel
Q: 1/8=350
M: 4/4
L: 1/8
K: Dmix
DE|"D"FDGE FDDE|"D"FGAG FDDE|FGAB "C"c2 Bc|"D"dAAB "Am"cBAG|
"D"FDGE FDDE|"D"FGAG FDDE|"D"FGAB "Am"cBcA|"C"GECD "D"ED :|
DF|"D"Ad (3d^cd edAB|"C"c2 cB cABc|"D"Ad (3d^cd edfd|"Am"cAGE "D"FDDA|
"D"Ad (3d^cd edAB|"C"c2 cB cdeg|"Am"afge "D"fded|"Am"cAGE "D"ED :|
